assets/icons/qvision/7mp.svg

<svg xmlns="http://www.w3.org/2000/svg" height="24" viewBox="0 0 24 24" width="24"><path d="M0 0h24v24H0V0z" fill="none"/><path d="M19 3H5c-1.1 0-2 .9-2 2v14c0 1.1.9 2 2 2h14c1.1 0 2-.9 2-2V5c0-1.1-.9-2-2-2zm-7 15.5h-1.5V14h-1v3H8v-3H7v4.5H5.5v-5c0-.55.45-1 1-1H11c.55 0 1 .45 1 1v5zm3.5 0H14v-6h3.5c.55 0 1 .45 1 1V16c0 .55-.45 1-1 1h-2v1.5zm-2.5-7h-1.75L12.62 7H10V5.5h3.5c.67 0 1.15.65.96 1.29L13 11.5zm2.5 2.5H17v1.5h-1.5z"/></svg>

<svg width="24" height="24" viewBox="0 0 24 24" fill="none" xmlns="http://www.w3.org/2000/svg">
<g clip-path="url(#clip0_147_3169)">
<path d="M19 3H5C3.9 3 3 3.9 3 5V19C3 20.1 3.9 21 5 21H19C20.1 21 21 20.1 21 19V5C21 3.9 20.1 3 19 3ZM12 18.5H10.5V14H9.5V17H8V14H7V18.5H5.5V13.5C5.5 12.95 5.95 12.5 6.5 12.5H11C11.55 12.5 12 12.95 12 13.5V18.5ZM15.5 18.5H14V12.5H17.5C18.05 12.5 18.5 12.95 18.5 13.5V16C18.5 16.55 18.05 17 17.5 17H15.5V18.5ZM13 11.5H11.25L12.62 7H10V5.5H13.5C14.17 5.5 14.65 6.15 14.46 6.79L13 11.5ZM15.5 14H17V15.5H15.5V14Z" fill="#323232"/>
</g>
<defs>
<clipPath id="clip0_147_3169">
<rect width="24" height="24" fill="white"/>
</clipPath>
</defs>
</svg>
